images/icon-supervisor.svg

<svg width="64" height="64" viewBox="0 0 64 64" fill="none" xmlns="http://www.w3.org/2000/svg">
<path d="M56.8423 7.15815C47.3164 -2.40484 31.9404 -2.36724 22.4146 7.15815C14.3892 15.184 12.9639 27.5971 18.8892 37.1606L16.3765 39.7104L15.0205 45.8549L19.2349 50.0693L24.3271 47.6611L26.8398 45.1108C36.4033 51.0366 48.8169 49.6489 56.8423 41.5859C66.4053 32.06 66.3677 16.684 56.8423 7.15815Z" fill="#676E74"/>
<path d="M24.3271 47.6611L26.8398 45.1108C36.4033 51.0366 48.8164 49.6489 56.8423 41.5859C66.4053 32.06 66.3677 16.684 56.8423 7.15814L16.583 47.4174L19.2344 50.0693L24.3271 47.6611Z" fill="#474F54"/>
<path d="M54.2124 9.78705C50.48 6.05414 45.3232 3.74554 39.6274 3.74554C28.2358 3.74554 19.001 12.9804 19.001 24.372C19.001 30.0678 21.3096 35.2245 25.042 38.9575C28.7749 42.6899 33.9316 44.9985 39.6274 44.9985C51.019 44.9985 60.2539 35.7636 60.2539 24.372C60.2539 18.6762 57.9453 13.5195 54.2124 9.78705Z" fill="#64E1DC"/>
<path d="M60.2539 24.372C60.2539 18.6762 57.9453 13.5195 54.2124 9.78705L25.042 38.9575C28.7749 42.6899 33.9316 44.9985 39.6274 44.9985C51.019 44.9985 60.2539 35.7636 60.2539 24.372Z" fill="#00C8C8"/>
<path d="M56.2393 23.4106C56.0552 23.103 53.2593 18.496 48.9585 15.0419C46.3281 12.9286 43.1362 11.246 39.6284 11.246C30.3862 11.246 23.3145 22.9145 23.0176 23.4106L22.4424 24.372L23.0176 25.3334C23.2017 25.6415 25.9971 30.2485 30.2979 33.7026C32.9287 35.8154 36.1206 37.498 39.6284 37.498C48.8706 37.498 55.9424 25.8295 56.2393 25.3334L56.814 24.372L56.2393 23.4106Z" fill="#EFEFF4"/>
<path d="M56.2393 25.3334L56.814 24.372L56.2393 23.4106C56.0552 23.103 53.2593 18.496 48.9585 15.0419L30.2979 33.7026C32.9287 35.8154 36.1206 37.498 39.6284 37.498C48.8706 37.498 55.9424 25.8295 56.2393 25.3334Z" fill="#DADAE5"/>
<path d="M43.6045 20.3964C42.5859 19.3774 41.1792 18.7465 39.6284 18.7465C36.5264 18.7465 34.0029 21.27 34.0029 24.372C34.0029 25.9233 34.6338 27.3295 35.6523 28.3481C36.6714 29.3666 38.0771 29.9975 39.6284 29.9975C42.7305 29.9975 45.2539 27.4741 45.2539 24.372C45.2539 22.8212 44.623 21.415 43.6045 20.3964Z" fill="#64E1DC"/>
<path d="M45.2529 24.372C45.2529 22.8212 44.6221 21.415 43.6035 20.3964L35.6514 28.3481C36.6699 29.3666 38.0762 29.9975 39.6274 29.9975C42.7295 29.9975 45.2529 27.4741 45.2529 24.372Z" fill="#00C8C8"/>
<path d="M40.9536 23.0463C40.6143 22.707 40.1455 22.497 39.6279 22.497C38.5933 22.497 37.7529 23.3373 37.7529 24.372C37.7529 24.8896 37.9629 25.3583 38.3022 25.6977C38.6416 26.037 39.1104 26.247 39.6279 26.247C40.6626 26.247 41.5029 25.4067 41.5029 24.372C41.5029 23.8549 41.293 23.3862 40.9536 23.0463Z" fill="#676E74"/>
<path d="M41.5024 24.372C41.5024 23.8549 41.2925 23.3862 40.9531 23.0463L38.3018 25.6977C38.6411 26.037 39.1099 26.247 39.6274 26.247C40.6621 26.247 41.5024 25.4067 41.5024 24.372Z" fill="#474F54"/>
<path d="M20.333 43.6669L16.376 39.7104L0 56.0493L3.9751 60.0248L7.95068 63.9999L24.3267 47.6611L20.333 43.6669Z" fill="#575C60"/>
<path d="M24.3271 47.6611L20.3335 43.6669L3.97559 60.0248L7.95117 63.9999L24.3271 47.6611Z" fill="#333637"/>
</svg>

<svg xmlns="http://www.w3.org/2000/svg" width="64" height="64"><g fill="none"><path fill="#676E74" d="M56.842 7.158c-9.526-9.563-24.902-9.525-34.428 0-8.025 8.026-9.45 20.44-3.525 30.003l-2.513 2.55-1.356 6.144 4.214 4.214 5.093-2.408 2.512-2.55a24.254 24.254 0 0030.003-3.525c9.563-9.526 9.525-24.902 0-34.428z"/><path fill="#474F54" d="M24.327 47.661l2.512-2.55a24.254 24.254 0 0030.003-3.525c9.563-9.526 9.525-24.902 0-34.428l-40.26 40.26 2.652 2.651 5.093-2.408z"/><path fill="#64E1DC" d="M54.213 9.787a20.56 20.56 0 00-14.585-6.041C28.236 3.746 19 12.98 19 24.372a20.564 20.564 0 006.041 14.586 20.564 20.564 0 0014.586 6.04c11.392 0 20.626-9.234 20.626-20.626a20.56 20.56 0 00-6.041-14.585z"/><path fill="#00C8C8" d="M60.254 24.372a20.56 20.56 0 00-6.041-14.585l-29.17 29.17A20.564 20.564 0 0039.627 45c11.392 0 20.626-9.235 20.626-20.627z"/><path fill="#EFEFF4" d="M56.239 23.41c-.184-.307-2.98-4.914-7.281-8.368-2.63-2.113-5.822-3.796-9.33-3.796-9.242 0-16.314 11.669-16.61 12.165l-.576.961.575.961c.184.309 2.98 4.916 7.28 8.37 2.631 2.112 5.823 3.795 9.33 3.795 9.243 0 16.315-11.668 16.612-12.165l.574-.96-.574-.962z"/><path fill="#DADAE5" d="M56.239 25.333l.574-.96-.574-.962c-.184-.308-2.98-4.915-7.281-8.369l-18.66 18.66c2.63 2.113 5.822 3.796 9.33 3.796 9.242 0 16.314-11.668 16.61-12.165z"/><path fill="#64E1DC" d="M43.604 20.396a5.607 5.607 0 00-3.976-1.65 5.632 5.632 0 00-5.626 5.626c0 1.551.631 2.958 1.65 3.976a5.609 5.609 0 003.976 1.65 5.632 5.632 0 005.625-5.626c0-1.55-.63-2.957-1.649-3.976z"/><path fill="#00C8C8" d="M45.253 24.372c0-1.55-.63-2.957-1.649-3.976l-7.952 7.952a5.608 5.608 0 003.976 1.65 5.632 5.632 0 005.625-5.626z"/><path fill="#676E74" d="M40.954 23.046a1.876 1.876 0 10-1.326 3.2 1.876 1.876 0 001.326-3.2z"/><path fill="#474F54" d="M41.503 24.372c0-.517-.21-.986-.55-1.326l-2.65 2.652a1.876 1.876 0 003.2-1.326z"/><path fill="#575C60" d="M20.333 43.667l-3.957-3.957L0 56.049l3.975 3.976L7.951 64l16.376-16.339z"/><path fill="#333637" d="M24.327 47.661l-3.994-3.994L3.975 60.025 7.951 64z"/></g></svg>
